front/src/Assets/image/landing/grid.svg

<svg width="494" height="500" viewBox="0 0 494 500" fill="none" xmlns="http://www.w3.org/2000/svg">
<path opacity="0.5" fill-rule="evenodd" clip-rule="evenodd" d="M0 250C0 472.014 0.0525 500 0.46875 500C0.882187 500 0.9375 496.372 0.9375 469.219V438.438H31.7188H62.5V469.219C62.5 496.372 62.5553 500 62.9688 500C63.3822 500 63.4375 496.372 63.4375 469.219V438.438H94.2188H125V469.219C125 496.372 125.055 500 125.469 500C125.882 500 125.938 496.372 125.938 469.219V438.438H156.719H187.5V469.219C187.5 496.372 187.555 500 187.969 500C188.382 500 188.438 496.372 188.438 469.219V438.438H219.219H250V469.219C250 496.372 250.055 500 250.469 500C250.882 500 250.938 496.372 250.938 469.219V438.438H281.719H312.5V469.219C312.5 496.372 312.555 500 312.969 500C313.382 500 313.438 496.372 313.438 469.219V438.438H344.219H375V469.219C375 496.372 375.055 500 375.469 500C375.882 500 375.938 496.372 375.938 469.219V438.438H406.719H437.5V469.219C437.5 496.372 437.555 500 437.969 500C438.382 500 438.438 496.372 438.438 469.219V438.438H469.219C496.372 438.438 500 438.382 500 437.969C500 437.555 496.372 437.5 469.219 437.5H438.438V406.719V375.938H469.219C496.372 375.938 500 375.882 500 375.469C500 375.055 496.372 375 469.219 375H438.438V344.219V313.438H469.219C496.372 313.438 500 313.382 500 312.969C500 312.555 496.372 312.5 469.219 312.5H438.438V281.719V250.938H469.219C496.372 250.938 500 250.882 500 250.469C500 250.055 496.372 250 469.219 250H438.438V219.219V188.438H469.219C496.372 188.438 500 188.382 500 187.969C500 187.555 496.372 187.5 469.219 187.5H438.438V156.719V125.938H469.219C496.372 125.938 500 125.882 500 125.469C500 125.055 496.372 125 469.219 125H438.438V94.2188V63.4375H469.219C496.372 63.4375 500 63.3822 500 62.9688C500 62.5553 496.372 62.5 469.219 62.5H438.438V31.7188V0.9375H469.219C496.372 0.9375 500 0.882187 500 0.46875C500 0.0525 472.014 0 250 0H0V250ZM62.5 31.7188V62.5H31.7188H0.9375V31.7188V0.9375H31.7188H62.5V31.7188ZM125 31.7188V62.5H94.2188H63.4375V31.7188V0.9375H94.2188H125V31.7188ZM187.5 31.7188V62.5H156.719H125.938V31.7188V0.9375H156.719H187.5V31.7188ZM250 31.7188V62.5H219.219H188.438V31.7188V0.9375H219.219H250V31.7188ZM312.5 31.7188V62.5H281.719H250.938V31.7188V0.9375H281.719H312.5V31.7188ZM375 31.7188V62.5H344.219H313.438V31.7188V0.9375H344.219H375V31.7188ZM437.5 31.7188V62.5H406.719H375.938V31.7188V0.9375H406.719H437.5V31.7188ZM62.5 94.2188V125H31.7188H0.9375V94.2188V63.4375H31.7188H62.5V94.2188ZM125 94.2188V125H94.2188H63.4375V94.2188V63.4375H94.2188H125V94.2188ZM187.5 94.2188V125H156.719H125.938V94.2188V63.4375H156.719H187.5V94.2188ZM250 94.2188V125H219.219H188.438V94.2188V63.4375H219.219H250V94.2188ZM312.5 94.2188V125H281.719H250.938V94.2188V63.4375H281.719H312.5V94.2188ZM375 94.2188V125H344.219H313.438V94.2188V63.4375H344.219H375V94.2188ZM437.5 94.2188V125H406.719H375.938V94.2188V63.4375H406.719H437.5V94.2188ZM62.5 156.719V187.5H31.7188H0.9375V156.719V125.938H31.7188H62.5V156.719ZM125 156.719V187.5H94.2188H63.4375V156.719V125.938H94.2188H125V156.719ZM187.5 156.719V187.5H156.719H125.938V156.719V125.938H156.719H187.5V156.719ZM250 156.719V187.5H219.219H188.438V156.719V125.938H219.219H250V156.719ZM312.5 156.719V187.5H281.719H250.938V156.719V125.938H281.719H312.5V156.719ZM375 156.719V187.5H344.219H313.438V156.719V125.938H344.219H375V156.719ZM437.5 156.719V187.5H406.719H375.938V156.719V125.938H406.719H437.5V156.719ZM62.5 219.219V250H31.7188H0.9375V219.219V188.438H31.7188H62.5V219.219ZM125 219.219V250H94.2188H63.4375V219.219V188.438H94.2188H125V219.219ZM187.5 219.219V250H156.719H125.938V219.219V188.438H156.719H187.5V219.219ZM250 219.219V250H219.219H188.438V219.219V188.438H219.219H250V219.219ZM312.5 219.219V250H281.719H250.938V219.219V188.438H281.719H312.5V219.219ZM375 219.219V250H344.219H313.438V219.219V188.438H344.219H375V219.219ZM437.5 219.219V250H406.719H375.938V219.219V188.438H406.719H437.5V219.219ZM62.5 281.719V312.5H31.7188H0.9375V281.719V250.938H31.7188H62.5V281.719ZM125 281.719V312.5H94.2188H63.4375V281.719V250.938H94.2188H125V281.719ZM187.5 281.719V312.5H156.719H125.938V281.719V250.938H156.719H187.5V281.719ZM250 281.719V312.5H219.219H188.438V281.719V250.938H219.219H250V281.719ZM312.5 281.719V312.5H281.719H250.938V281.719V250.938H281.719H312.5V281.719ZM375 281.719V312.5H344.219H313.438V281.719V250.938H344.219H375V281.719ZM437.5 281.719V312.5H406.719H375.938V281.719V250.938H406.719H437.5V281.719ZM62.5 344.219V375H31.7188H0.9375V344.219V313.438H31.7188H62.5V344.219ZM125 344.219V375H94.2188H63.4375V344.219V313.438H94.2188H125V344.219ZM187.5 344.219V375H156.719H125.938V344.219V313.438H156.719H187.5V344.219ZM250 344.219V375H219.219H188.438V344.219V313.438H219.219H250V344.219ZM312.5 344.219V375H281.719H250.938V344.219V313.438H281.719H312.5V344.219ZM375 344.219V375H344.219H313.438V344.219V313.438H344.219H375V344.219ZM437.5 344.219V375H406.719H375.938V344.219V313.438H406.719H437.5V344.219ZM62.5 406.719V437.5H31.7188H0.9375V406.719V375.938H31.7188H62.5V406.719ZM125 406.719V437.5H94.2188H63.4375V406.719V375.938H94.2188H125V406.719ZM187.5 406.719V437.5H156.719H125.938V406.719V375.938H156.719H187.5V406.719ZM250 406.719V437.5H219.219H188.438V406.719V375.938H219.219H250V406.719ZM312.5 406.719V437.5H281.719H250.938V406.719V375.938H281.719H312.5V406.719ZM375 406.719V437.5H344.219H313.438V406.719V375.938H344.219H375V406.719ZM437.5 406.719V437.5H406.719H375.938V406.719V375.938H406.719H437.5V406.719Z" fill="url(#paint0_radial_3_194)"/>
<defs>
<radialGradient id="paint0_radial_3_194" cx="0" cy="0" r="1" gradientUnits="userSpaceOnUse" gradientTransform="translate(250 250) rotate(90) scale(250)">
<stop stop-color="white"/>
<stop offset="1" stop-opacity="0"/>
</radialGradient>
</defs>
</svg>

<svg xmlns="http://www.w3.org/2000/svg" fill="none" viewBox="0 0 494 500">
  <path fill="url(#paint0_radial_3_194)" fill-rule="evenodd" d="M0 250c0 222.014.052 250 .469 250 .413 0 .469-3.628.469-30.781v-30.781H62.5v30.781c0 27.153.055 30.781.469 30.781.413 0 .468-3.628.468-30.781v-30.781H125v30.781c0 27.153.055 30.781.469 30.781.413 0 .469-3.628.469-30.781v-30.781H187.5v30.781c0 27.153.055 30.781.469 30.781.413 0 .469-3.628.469-30.781v-30.781H250v30.781c0 27.153.055 30.781.469 30.781.413 0 .469-3.628.469-30.781v-30.781H312.5v30.781c0 27.153.055 30.781.469 30.781.413 0 .469-3.628.469-30.781v-30.781H375v30.781c0 27.153.055 30.781.469 30.781.413 0 .469-3.628.469-30.781v-30.781H437.5v30.781c0 27.153.055 30.781.469 30.781.413 0 .469-3.628.469-30.781v-30.781h30.781c27.153 0 30.781-.056 30.781-.469 0-.414-3.628-.469-30.781-.469h-30.781v-61.562h30.781c27.153 0 30.781-.056 30.781-.469 0-.414-3.628-.469-30.781-.469h-30.781v-61.562h30.781c27.153 0 30.781-.056 30.781-.469 0-.414-3.628-.469-30.781-.469h-30.781v-61.562h30.781c27.153 0 30.781-.056 30.781-.469 0-.414-3.628-.469-30.781-.469h-30.781v-61.562h30.781c27.153 0 30.781-.056 30.781-.469 0-.414-3.628-.469-30.781-.469h-30.781v-61.562h30.781c27.153 0 30.781-.056 30.781-.469 0-.414-3.628-.469-30.781-.469h-30.781V63.438h30.781c27.153 0 30.781-.056 30.781-.47 0-.413-3.628-.468-30.781-.468h-30.781V.937h30.781C496.372.938 500 .882 500 .47 500 .053 472.014 0 250 0H0v250zM62.5 31.719V62.5H.937V.937H62.5V31.72zm62.5 0V62.5H63.438V.937H125V31.72zm62.5 0V62.5h-61.562V.937H187.5V31.72zm62.5 0V62.5h-61.562V.937H250V31.72zm62.5 0V62.5h-61.562V.937H312.5V31.72zm62.5 0V62.5h-61.562V.937H375V31.72zm62.5 0V62.5h-61.562V.937H437.5V31.72zm-375 62.5V125H.937V63.438H62.5v30.78zm62.5 0V125H63.438V63.438H125v30.78zm62.5 0V125h-61.562V63.438H187.5v30.78zm62.5 0V125h-61.562V63.438H250v30.78zm62.5 0V125h-61.562V63.438H312.5v30.78zm62.5 0V125h-61.562V63.438H375v30.78zm62.5 0V125h-61.562V63.438H437.5v30.78zm-375 62.5V187.5H.937v-61.562H62.5v30.781zm62.5 0V187.5H63.438v-61.562H125v30.781zm62.5 0V187.5h-61.562v-61.562H187.5v30.781zm62.5 0V187.5h-61.562v-61.562H250v30.781zm62.5 0V187.5h-61.562v-61.562H312.5v30.781zm62.5 0V187.5h-61.562v-61.562H375v30.781zm62.5 0V187.5h-61.562v-61.562H437.5v30.781zm-375 62.5V250H.937v-61.562H62.5v30.781zm62.5 0V250H63.438v-61.562H125v30.781zm62.5 0V250h-61.562v-61.562H187.5v30.781zm62.5 0V250h-61.562v-61.562H250v30.781zm62.5 0V250h-61.562v-61.562H312.5v30.781zm62.5 0V250h-61.562v-61.562H375v30.781zm62.5 0V250h-61.562v-61.562H437.5v30.781zm-375 62.5V312.5H.937v-61.562H62.5v30.781zm62.5 0V312.5H63.438v-61.562H125v30.781zm62.5 0V312.5h-61.562v-61.562H187.5v30.781zm62.5 0V312.5h-61.562v-61.562H250v30.781zm62.5 0V312.5h-61.562v-61.562H312.5v30.781zm62.5 0V312.5h-61.562v-61.562H375v30.781zm62.5 0V312.5h-61.562v-61.562H437.5v30.781zm-375 62.5V375H.937v-61.562H62.5v30.781zm62.5 0V375H63.438v-61.562H125v30.781zm62.5 0V375h-61.562v-61.562H187.5v30.781zm62.5 0V375h-61.562v-61.562H250v30.781zm62.5 0V375h-61.562v-61.562H312.5v30.781zm62.5 0V375h-61.562v-61.562H375v30.781zm62.5 0V375h-61.562v-61.562H437.5v30.781zm-375 62.5V437.5H.937v-61.562H62.5v30.781zm62.5 0V437.5H63.438v-61.562H125v30.781zm62.5 0V437.5h-61.562v-61.562H187.5v30.781zm62.5 0V437.5h-61.562v-61.562H250v30.781zm62.5 0V437.5h-61.562v-61.562H312.5v30.781zm62.5 0V437.5h-61.562v-61.562H375v30.781zm62.5 0V437.5h-61.562v-61.562H437.5v30.781z" clip-rule="evenodd" opacity=".5"/>
  <defs>
    <radialGradient id="paint0_radial_3_194" cx="0" cy="0" r="1" gradientTransform="rotate(90 0 250) scale(250)" gradientUnits="userSpaceOnUse">
      <stop stop-color="#fff"/>
      <stop offset="1" stop-opacity="0"/>
    </radialGradient>
  </defs>
</svg>
